Adwaita++/actions/22/adjustlevels.svg

<svg height="22" viewBox="0 0 22 22" width="22" xmlns="http://www.w3.org/2000/svg">
  <path d="m11 2a3 3 0 0 0 -2.8242188 2h-7.1757812v2h7.1738281a3 3 0 0 0 2.8261719 2 3 3 0 0 0 2.824219-2h1.175781v-2h-1.173828a3 3 0 0 0 -2.826172-2zm-5 6a3 3 0 0 0 -2.8242188 2h-2.1757812v2h2.1738281a3 3 0 0 0 2.8261719 2 3 3 0 0 0 2.8242188-2h6.1757812v-2h-6.1738281a3 3 0 0 0 -2.8261719-2z" fill="#444" transform="translate(3 3)"/>
</svg>

<svg xmlns="http://www.w3.org/2000/svg" width="22" height="22" viewBox="0 0 22 22">
 <defs>
  <style id="current-color-scheme" type="text/css">
   .ColorScheme-Text { color:#444444; } .ColorScheme-Highlight { color:#4285f4; }
  </style>
 </defs>
 <path style="fill:currentColor" class="ColorScheme-Text" d="M 11 2 A 3 3 0 0 0 8.1757812 4 L 1 4 L 1 6 L 8.1738281 6 A 3 3 0 0 0 11 8 A 3 3 0 0 0 13.824219 6 L 15 6 L 15 4 L 13.826172 4 A 3 3 0 0 0 11 2 z M 6 8 A 3 3 0 0 0 3.1757812 10 L 1 10 L 1 12 L 3.1738281 12 A 3 3 0 0 0 6 14 A 3 3 0 0 0 8.8242188 12 L 15 12 L 15 10 L 8.8261719 10 A 3 3 0 0 0 6 8 z" transform="translate(3 3)"/>
</svg>
